X:58
T:Cumberland Waltz, The
R:waltz 64
A:North-West
M:3/4
O:England
R:Waltz
Z:Richard Robinson <URL:http://www.qualmograph.org.uk/contact.html>
F:http://richardrobinson.tunebook.org.uk/tune/1312
K:D
AA|\
D2F2 AA| D2F2 AA| D2F2 A2| "tr"f4g2| f2e2d2| A4B2| A2F2D2| E4AA|\
D2F2 AA| D2F2 AA| D2F2 A2| "tr"f4g2| f2e2 d2| A4 AA| A2c2 e2| d4||\
A2|\
f4 d2| e4 d2| ccc2B2| G4 A2| BBB2A2| BBB2A2| BcB2 A2| (F2A2) A2|\
f4 d2| e4 d2| ccc2B2| G4 A2| BBB2A2| BBB2A2| A2c2e2| d4|]

